src/images/icons/give.svg

<?xml version="1.0" encoding="UTF-8" standalone="no"?>
<svg
   xmlns:dc="http://purl.org/dc/elements/1.1/"
   xmlns:cc="http://creativecommons.org/ns#"
   xmlns:rdf="http://www.w3.org/1999/02/22-rdf-syntax-ns#"
   xmlns:svg="http://www.w3.org/2000/svg"
   xmlns="http://www.w3.org/2000/svg"
   xmlns:sodipodi="http://sodipodi.sourceforge.net/DTD/sodipodi-0.dtd"
   xmlns:inkscape="http://www.inkscape.org/namespaces/inkscape"
   class="icon-lg icon-give"
   fill="currentcolor"
   viewBox="0 0 32 32"
   id="svg2"
   version="1.1"
   inkscape:version="0.91 r13725"
   sodipodi:docname="give.svg"
   width="32"
   height="32">
  <metadata
     id="metadata12">
    <rdf:RDF>
      <cc:Work
         rdf:about="">
        <dc:format>image/svg+xml</dc:format>
        <dc:type
           rdf:resource="http://purl.org/dc/dcmitype/StillImage" />
        <dc:title />
      </cc:Work>
    </rdf:RDF>
  </metadata>
  <defs
     id="defs10" />
  <sodipodi:namedview
     pagecolor="#ffffff"
     bordercolor="#666666"
     borderopacity="1"
     objecttolerance="10"
     gridtolerance="10"
     guidetolerance="10"
     inkscape:pageopacity="0"
     inkscape:pageshadow="2"
     inkscape:window-width="1920"
     inkscape:window-height="1012"
     id="namedview8"
     showgrid="false"
     inkscape:zoom="32"
     inkscape:cx="18.317775"
     inkscape:cy="27.291632"
     inkscape:window-x="0"
     inkscape:window-y="32"
     inkscape:window-maximized="1"
     inkscape:current-layer="svg2"
     fit-margin-top="1"
     fit-margin-left="2"
     fit-margin-right="2"
     fit-margin-bottom="1" />
  <path
     id="path6"
     d="m 8.4446528,30.997893 c 0,0 2.4632332,-9.02335 2.4363852,-10.390652 C 10.19153,17.635978 8.0148888,18.189833 4.7536385,14.531701 3.3713683,13.161014 2.0344047,8.8118614 2.411011,8.8238419 2.7103084,7.8323504 4.274226,12.053482 4.2797449,10.00254 c 0,-0.3792209 0.043391,-1.9898699 0.056179,-2.9248593 C 4.9335822,6.1718751 5.394386,7.6577146 5.5583885,7.88101 5.8757879,7.3856957 6.297506,8.176621 6.5158319,8.8341153 8.1325341,8.9907093 6.7267933,13.33697 8.4156742,13.72438 8.3219232,13.258359 8.2430775,11.090901 8.2750403,10.688505 8.3224831,9.5372328 9.3665117,9.686852 9.7350807,12.78981 c 0.2054116,1.50003 1.6705663,1.835851 2.3268603,2.148076 0.999783,0.476133 2.106959,1.952566 2.471757,3.585744 0.363945,1.6277 -0.217344,12.476367 -0.217344,12.476367 l -5.8717002,0 z m 15.1118062,0 c 0,0 -2.463233,-9.02335 -2.435532,-10.390652 0.687925,-2.971763 3.501527,-2.576046 6.126972,-6.07554 1.382053,-1.59947 1.781369,-4.116654 2.436385,-4.8527629 0.653737,-0.7373737 0.08949,-0.6564733 0.08949,-0.6564733 C 28.837916,9.0856628 28.1373,10.128105 28.046953,10.182037 27.695013,10.011965 27.855428,7.3693706 27.641668,6.8958622 27.273656,6.5211483 26.849776,6.9084598 26.567004,7.88101 26.177317,7.3739685 25.701916,7.9117342 25.615987,8.8341153 25.026902,8.4656635 24.851944,9.912756 24.883531,10.415888 c 0.0044,1.128995 0.176874,2.737407 -0.902982,2.911246 0.09461,-0.466021 -0.22465,-2.236233 -0.256612,-2.638629 -0.139097,-0.7003705 -0.956926,-0.8057141 -1.00855,2.313169 -0.207116,1.50003 -2.121631,1.623987 -2.777072,1.936212 -1.00021,0.476133 -2.108238,1.952566 -2.473035,3.585744 C 17.100482,20.151333 17.682623,31 17.682623,31 l 5.872552,0 z M 22.119431,2.5868291 c -0.910288,0.609281 -1.306195,1.8708225 -1.306195,1.8708225 0.05838,-1.2459513 0.573192,-1.9020028 0.820368,-2.1476545 L 19.91275,1.5473421 C 18.998422,2.3184734 18.245155,3.3922328 17.647684,4.2811033 17.980092,2.7376744 18.660251,1.4946726 18.76594,1.3075905 18.061886,1.1518977 17.378425,1.069336 16.716087,1 15.635185,1.7230509 15.01031,2.827452 14.424173,3.8441567 c 0.07884,-1.2033947 0.666521,-2.3553832 0.929039,-2.8155041 -0.928179,0.041129 -1.933593,0.173979 -2.724899,0.3391917 -0.579504,0.7117419 -1.100883,1.5994222 -1.523965,2.2416163 -0.05114,-0.7120924 0.163647,-1.3972174 0.317493,-1.7865509 -1.36799,0.4150356 -3.6394486,1.4684276 -3.8184372,3.903025 0.00582,1.4949914 3.2742022,0.4317004 9.8312072,0.7773587 3.191975,0.1474749 7.311237,0.6142039 6.950313,-0.8072747 C 24.118662,4.3096579 23.083248,3.2642986 22.119431,2.5868291 Z"
     inkscape:connector-curvature="0"
     sodipodi:nodetypes="cccccccccccccccccccccccccccccccccccccccccccccccccc" />
</svg>

<?xml version="1.0" encoding="utf-8"?>
<!-- Generated by IcoMoon.io -->
<!DOCTYPE svg PUBLIC "-//W3C//DTD SVG 1.1//EN" "http://www.w3.org/Graphics/SVG/1.1/DTD/svg11.dtd">
<svg version="1.1" xmlns="http://www.w3.org/2000/svg" xmlns:xlink="http://www.w3.org/1999/xlink" width="32" height="32" viewBox="0 0 32 32">
<path fill="#444" d="M8.445 30.998c0 0 2.463-9.023 2.436-10.391-0.69-2.971-2.866-2.417-6.127-6.076-1.382-1.371-2.719-5.72-2.343-5.708 0.299-0.992 1.863 3.23 1.869 1.179 0-0.379 0.043-1.99 0.056-2.925 0.598-0.906 1.058 0.58 1.222 0.803 0.317-0.495 0.739 0.296 0.957 0.953 1.617 0.157 0.211 4.503 1.9 4.89-0.094-0.466-0.173-2.633-0.141-3.036 0.047-1.151 1.091-1.002 1.46 2.101 0.205 1.5 1.671 1.836 2.327 2.148 1 0.476 2.107 1.953 2.472 3.586 0.364 1.628-0.217 12.476-0.217 12.476h-5.872zM23.556 30.998c0 0-2.463-9.023-2.436-10.391 0.688-2.972 3.502-2.576 6.127-6.076 1.382-1.599 1.781-4.117 2.436-4.853 0.654-0.737 0.090-0.656 0.090-0.656-0.936 0.063-1.636 1.106-1.727 1.16-0.352-0.17-0.192-2.813-0.405-3.286-0.368-0.375-0.792 0.013-1.075 0.985-0.39-0.507-0.865 0.031-0.951 0.953-0.589-0.368-0.764 1.079-0.732 1.582 0.004 1.129 0.177 2.737-0.903 2.911 0.095-0.466-0.225-2.236-0.257-2.639-0.139-0.7-0.957-0.806-1.009 2.313-0.207 1.5-2.122 1.624-2.777 1.936-1 0.476-2.108 1.953-2.473 3.586-0.365 1.628 0.217 12.476 0.217 12.476h5.873zM22.119 2.587c-0.91 0.609-1.306 1.871-1.306 1.871 0.058-1.246 0.573-1.902 0.82-2.148l-1.721-0.763c-0.914 0.771-1.668 1.845-2.265 2.734 0.332-1.543 1.013-2.786 1.118-2.974-0.704-0.156-1.387-0.238-2.050-0.308-1.081 0.723-1.706 1.827-2.292 2.844 0.079-1.203 0.667-2.355 0.929-2.816-0.928 0.041-1.934 0.174-2.725 0.339-0.579 0.712-1.101 1.599-1.524 2.242-0.051-0.712 0.164-1.397 0.318-1.787-1.368 0.415-3.639 1.468-3.818 3.903 0.006 1.495 3.274 0.432 9.831 0.777 3.192 0.147 7.311 0.614 6.95-0.807-0.266-1.386-1.302-2.432-2.265-3.109z"></path>
</svg>
